static/logos/togglHire-wordmark-color.svg

<svg width="100" height="23" viewBox="0 0 100 23" fill="none" xmlns="http://www.w3.org/2000/svg">
<g clip-path="url(#clip0_1_709)">
<path d="M31.3048 8.02798C31.5551 7.77499 31.8962 7.6666 32.2364 7.6666C32.5765 7.6666 32.9182 7.77499 33.1668 8.02798C33.4096 8.27397 33.5235 8.61852 33.5235 8.97014C33.5235 9.32337 33.4096 9.6663 33.1668 9.91391C32.9166 10.1669 32.5765 10.2753 32.2364 10.2753C31.8962 10.2753 31.5551 10.1669 31.3048 9.91391C31.062 9.66792 30.9481 9.32337 30.9481 8.97014C30.9481 8.61852 31.062 8.27397 31.3048 8.02744V8.02798ZM38.684 19.5716C38.6508 18.5617 38.3561 17.4917 37.607 16.7868C36.7695 15.9997 35.5577 15.6383 34.4331 15.6383H29.415C28.9192 15.6383 28.4807 15.2612 28.4807 14.7958C28.4807 14.4047 28.7444 14.0769 29.1011 13.981C29.1 13.981 29.1856 13.9588 29.2786 13.929C30.177 14.3667 31.1904 14.5634 32.2021 14.5634C33.7503 14.5634 35.3011 14.1034 36.4364 13.0274C37.5417 11.9813 38.0594 10.5174 38.0594 9.01942C38.0594 7.52145 37.5428 6.05756 36.4364 5.00977C36.1137 4.70547 35.7541 4.44403 35.3663 4.23178C36.4321 4.48208 37.532 4.17164 38.2882 2.84917L36.1546 1.29645L34.3749 3.80594C33.671 3.58188 32.9372 3.46984 32.1995 3.47384C30.6519 3.47384 29.1011 3.9338 27.9658 5.00977C26.8604 6.05594 26.3428 7.52032 26.3428 9.01888C26.3428 10.5174 26.8594 11.9813 27.9658 13.028C28.0615 13.1191 28.1615 13.2046 28.2626 13.288C28.1529 13.3471 28.0556 13.3991 28.054 13.3991C27.6465 13.631 27.1465 14.0005 26.6524 14.5341C25.9513 15.2904 25.2503 16.4228 25.2503 17.9289C25.2503 17.9289 25.1529 21.1427 28.7973 21.1427H31.4358C32.0444 21.1427 32.662 21.5339 32.662 22.1498C32.662 22.3736 32.5968 22.58 32.4856 22.7545H37.5342C38.2989 21.8952 38.7214 20.6741 38.684 19.5716ZM44.1155 8.02798C44.3652 7.77499 44.707 7.6666 45.046 7.6666C45.3856 7.6666 45.7273 7.77499 45.977 8.02798C46.2198 8.27397 46.3337 8.61852 46.3337 8.97014C46.3337 9.32337 46.2198 9.6663 45.977 9.91391C45.7273 10.1669 45.3856 10.2753 45.0455 10.2753C44.7053 10.2753 44.3641 10.1669 44.115 9.91391C43.8727 9.66792 43.7588 9.32337 43.7588 8.97014C43.7588 8.61852 43.8727 8.27397 44.1155 8.02744V8.02798ZM53.0567 19.5716C53.0235 18.5617 52.7294 17.4917 51.9796 16.7868C51.1428 15.9997 49.9305 15.6383 48.8064 15.6383L42.9813 15.596C42.6134 15.596 42.3331 15.3625 42.3331 15.0163C42.3331 14.7324 42.4732 14.3088 42.8246 14.2389C43.5128 14.461 44.246 14.564 44.9776 14.564C46.5256 14.564 48.0759 14.1034 49.2117 13.0274C50.3166 11.9813 50.8331 10.5174 50.8331 9.01942C50.8331 7.52145 50.3166 6.05756 49.2117 5.00977C48.8889 4.70544 48.5292 4.444 48.1411 4.23178C49.2075 4.48208 50.307 4.17164 51.0636 2.84917L48.9299 1.29645L47.1502 3.80594C46.4465 3.58188 45.7126 3.46984 44.9749 3.47384C43.4267 3.47384 41.8765 3.9338 40.7406 5.00977C39.6342 6.05594 39.1176 7.52032 39.1176 9.01888C39.1176 10.5174 39.6342 11.9813 40.7406 13.028C41.0653 13.3338 41.4274 13.5961 41.8182 13.8082C41.5625 14.0053 41.2931 14.2459 41.0251 14.5341C40.3246 15.2904 39.623 16.4228 39.623 17.9289C39.623 17.9289 39.5262 21.1427 43.1701 21.1427H45.8107C46.4187 21.1427 47.0364 21.5339 47.0364 22.1498C47.0364 22.3736 46.9711 22.58 46.8599 22.7545H51.9091C52.6722 21.8952 53.0946 20.6741 53.0572 19.5716H53.0567Z" fill="#FF8A7A"/>
<path d="M59.1668 17.9219V13.1234C58.0802 13.2626 57.7011 12.4862 57.7011 11.7153V0H52.308V12.5903C52.308 14.1544 52.5369 15.4579 53.0936 16.2781C53.9487 17.5269 55.1064 18.3455 57.408 18.3537C57.8343 18.3374 58.5423 18.2507 59.1668 17.9219ZM19.4069 12.0869C19.085 12.4131 18.6438 12.554 18.2048 12.554C17.7653 12.554 17.3251 12.4131 17.0027 12.0869C16.6893 11.7689 16.5417 11.3231 16.5417 10.869C16.5417 10.4134 16.6893 9.96862 17.0027 9.6506C17.3251 9.32449 17.7663 9.18413 18.2048 9.18413C18.6449 9.18413 19.085 9.32335 19.4069 9.6506C19.7208 9.96862 19.8679 10.4145 19.8679 10.8685C19.8679 11.3247 19.7208 11.7689 19.4075 12.0869H19.4069ZM23.4262 5.56672C22.0337 4.12669 20.1321 3.51015 18.2337 3.51015C16.3363 3.51015 14.4347 4.12669 13.0423 5.56672C11.6861 6.96886 11.0529 8.92791 11.0529 10.9335C11.0529 12.9392 11.6861 14.8982 13.0423 16.3004C14.4347 17.7393 16.3363 18.3563 18.2343 18.3563C20.1321 18.3563 22.0337 17.7404 23.4262 16.3004C24.7808 14.8999 25.4155 12.9392 25.4155 10.9335C25.4139 8.92791 24.7808 6.96772 23.4262 5.56672ZM66.4719 8.35689C66.8323 7.49922 67.3617 6.80036 68.0581 6.26126C68.7557 5.72113 69.6455 5.45132 70.7269 5.45132C72.2317 5.45132 73.3491 5.93242 74.0772 6.89246C74.8066 7.85353 75.1719 9.12078 75.1719 10.693V17.6493H73.6904V10.596C73.6904 9.45287 73.4198 8.53563 72.8796 7.84491C72.3383 7.15467 71.5359 6.80844 70.4701 6.80844C69.7174 6.80844 69.0826 6.95204 68.5653 7.23755C68.0605 7.5112 67.6353 7.91365 67.3311 8.40509C67.0257 8.89701 66.8066 9.46533 66.6731 10.1078C66.5371 10.778 66.4701 11.4607 66.4731 12.1449V17.6477H65.0377V0.97194H66.4719V8.35689ZM78.8629 17.6466H77.4287V5.73467H78.8629V17.6461V17.6466ZM77.2168 1.16156C77.4677 0.906928 77.7802 0.780695 78.1575 0.780695C78.5186 0.780695 78.8281 0.906928 79.0868 1.16156C79.3449 1.4162 79.4754 1.73422 79.4754 2.11508C79.4754 2.48078 79.3461 2.79447 79.0868 3.05614C78.9665 3.18232 78.8222 3.28222 78.6623 3.34967C78.5024 3.41713 78.3305 3.45073 78.1575 3.44839C77.782 3.44839 77.4677 3.31782 77.2168 3.05614C77.0946 2.93289 76.9988 2.78606 76.9341 2.62438C76.8695 2.46271 76.8371 2.28951 76.8401 2.11508C76.8401 1.73422 76.9653 1.4162 77.2168 1.16156ZM84.4353 6.18814C85.0623 5.69621 85.8222 5.4497 86.7162 5.4497C87.0449 5.4497 87.4293 5.48925 87.8683 5.56943V7.09401C87.6671 7.04946 87.4629 7.01767 87.2575 6.99862C87.0695 6.98276 86.8808 6.97461 86.6928 6.97425C86.0024 6.97425 85.4263 7.1097 84.9641 7.37952C84.5072 7.64455 84.1234 8.02114 83.8467 8.47497C83.5647 8.93545 83.3647 9.48323 83.2473 10.1192C83.1263 10.7873 83.0671 11.4653 83.0707 12.1444V17.6461H81.6365V5.73575H83.0234V8.45168C83.3371 7.43641 83.8078 6.68114 84.4353 6.18868V6.18814ZM97.8263 9.22641C97.6557 8.75862 97.3964 8.32934 97.0623 7.96299C96.7335 7.60539 96.3293 7.32479 95.8521 7.11784C95.3742 6.91138 94.8204 6.80844 94.1946 6.80844C92.9239 6.80844 91.9263 7.1785 91.1958 7.91695C90.4671 8.65539 90.0323 9.61976 89.891 10.8111H98.1437C98.112 10.239 98.0066 9.71018 97.8263 9.22641ZM88.797 9.27407C89.0719 8.50311 89.4593 7.83677 89.9605 7.27276C90.4617 6.7088 91.0695 6.26401 91.7826 5.93784C92.497 5.61169 93.2922 5.45025 94.1695 5.45025C95.094 5.45025 95.906 5.61277 96.603 5.93784C97.3012 6.26401 97.8802 6.70443 98.3425 7.25976C98.8048 7.81563 99.1503 8.46252 99.3766 9.20096C99.6042 9.9394 99.718 10.7211 99.718 11.5468V11.9759H89.8425L89.8186 12.1417C89.8341 12.8563 89.9629 13.4874 90.2078 14.0363C90.4503 14.5846 90.7713 15.0445 91.1713 15.4172C91.5766 15.7941 92.0521 16.0856 92.5701 16.2749C93.103 16.4737 93.6754 16.5729 94.2862 16.5729C95.1802 16.5729 95.9473 16.3946 96.5904 16.0376C97.2329 15.68 97.782 15.2466 98.2371 14.7395L98.9892 15.8826C98.488 16.4071 97.8605 16.8795 97.1078 17.3005C96.3557 17.7209 95.4383 17.9322 94.3569 17.9322C93.4623 17.9322 92.6521 17.7859 91.9233 17.4917C91.1946 17.1975 90.5671 16.7858 90.0425 16.2527C89.5174 15.7212 89.1096 15.0743 88.8192 14.312C88.5287 13.5492 88.3844 12.6997 88.3844 11.7635C88.3844 10.8729 88.5222 10.0434 88.797 9.27407ZM9.10802 13.1434C8.21126 13.1434 7.84329 12.8644 7.51174 12.4386C7.29784 12.1601 7.18928 11.7505 7.18928 11.219V8.73557H10.1995V4.28326H7.1909V0H3.34278V1.60202C3.34278 3.37687 2.00856 4.8142 0.362567 4.8142C0.239038 4.8142 0.118182 4.80553 0 4.79036V8.73665H2.01978V12.7024C2.01978 14.2638 2.29786 15.4665 2.85294 16.2852C3.71069 17.5383 4.6631 18.358 6.98557 18.358C8.3321 18.358 9.46096 18.0443 10.1995 17.6266V12.9592C9.92138 13.0692 9.54545 13.1434 9.10856 13.1434H9.10802Z" fill="#FF8A7A"/>
</g>
<defs>
<clipPath id="clip0_1_709">
<rect width="100" height="22.7545" fill="white"/>
</clipPath>
</defs>
</svg>

<svg xmlns="http://www.w3.org/2000/svg" width="278.261" height="64" fill="none" viewBox="0 0 100 23"><g fill="#FF8A7A" clip-path="url(#a)"><path d="M31.305 8.028c.25-.253.591-.361.931-.361.34 0 .682.108.93.361.244.246.358.59.358.942 0 .353-.114.696-.357.944-.25.253-.59.361-.93.361-.34 0-.682-.108-.932-.361-.243-.246-.357-.59-.357-.944 0-.351.114-.696.357-.943v.001Zm7.379 11.544c-.033-1.01-.328-2.08-1.077-2.785-.837-.787-2.05-1.149-3.174-1.149h-5.018c-.496 0-.934-.377-.934-.842 0-.391.263-.72.62-.815-.001 0 .085-.022.178-.052.898.438 1.911.634 2.923.634 1.548 0 3.1-.46 4.234-1.536 1.106-1.046 1.623-2.51 1.623-4.008 0-1.498-.516-2.961-1.623-4.01a5.197 5.197 0 0 0-1.07-.777c1.066.25 2.166-.06 2.922-1.383l-2.133-1.553-1.78 2.51a7.045 7.045 0 0 0-2.175-.332c-1.548 0-3.099.46-4.234 1.536-1.106 1.046-1.623 2.51-1.623 4.009 0 1.498.516 2.962 1.623 4.009.095.091.195.177.297.26-.11.06-.207.111-.209.111a5.99 5.99 0 0 0-1.402 1.135c-.7.756-1.402 1.889-1.402 3.395 0 0-.097 3.214 3.547 3.214h2.639c.608 0 1.226.39 1.226 1.007 0 .224-.065.43-.176.605h5.048a4.718 4.718 0 0 0 1.15-3.183Zm5.431-11.544c.25-.253.592-.361.931-.361.34 0 .681.108.931.361.243.246.357.59.357.942 0 .353-.114.696-.357.944-.25.253-.591.361-.931.361-.34 0-.682-.108-.931-.361-.242-.246-.356-.59-.356-.944 0-.351.114-.696.356-.943v.001Zm8.942 11.544c-.034-1.01-.328-2.08-1.077-2.785-.837-.787-2.05-1.149-3.174-1.149l-5.825-.042c-.368 0-.648-.233-.648-.58 0-.284.14-.707.492-.777a7.032 7.032 0 0 0 2.153.325c1.548 0 3.098-.46 4.234-1.537 1.105-1.046 1.621-2.51 1.621-4.008 0-1.498-.516-2.961-1.621-4.01a5.192 5.192 0 0 0-1.07-.777c1.066.25 2.165-.06 2.922-1.383L48.93 1.296l-1.78 2.51a7.043 7.043 0 0 0-2.175-.332c-1.548 0-3.099.46-4.234 1.536-1.107 1.046-1.623 2.51-1.623 4.009 0 1.498.516 2.962 1.623 4.009.324.306.686.568 1.077.78a6.537 6.537 0 0 0-.793.726c-.7.756-1.402 1.889-1.402 3.395 0 0-.097 3.214 3.547 3.214h2.64c.609 0 1.226.39 1.226 1.007 0 .224-.065.43-.176.605h5.05a4.724 4.724 0 0 0 1.147-3.183Z"/><path d="M59.167 17.922v-4.799c-1.087.14-1.466-.637-1.466-1.408V0h-5.393v12.59c0 1.564.229 2.868.786 3.688.855 1.249 2.012 2.068 4.314 2.076.426-.017 1.134-.103 1.759-.432Zm-39.76-5.835c-.322.326-.763.467-1.202.467-.44 0-.88-.14-1.202-.467-.314-.318-.461-.764-.461-1.218 0-.456.147-.9.46-1.218.323-.327.764-.467 1.203-.467.44 0 .88.14 1.202.467.314.318.46.764.46 1.217 0 .457-.146.9-.46 1.219Zm4.02-6.52c-1.393-1.44-3.295-2.057-5.193-2.057-1.898 0-3.8.617-5.192 2.057-1.356 1.402-1.99 3.36-1.99 5.367 0 2.005.634 3.964 1.99 5.366 1.393 1.44 3.294 2.056 5.192 2.056 1.898 0 3.8-.616 5.192-2.056 1.355-1.4 1.99-3.36 1.99-5.367-.002-2.005-.635-3.965-1.99-5.366Zm43.045 2.79c.36-.858.89-1.557 1.586-2.096.698-.54 1.587-.81 2.669-.81 1.505 0 2.622.481 3.35 1.441.73.962 1.095 2.229 1.095 3.801v6.956H73.69v-7.053c0-1.143-.27-2.06-.81-2.751-.542-.69-1.344-1.037-2.41-1.037-.753 0-1.387.144-1.905.43-.504.273-.93.676-1.234 1.167a5.21 5.21 0 0 0-.658 1.703c-.136.67-.203 1.353-.2 2.037v5.503h-1.435V.972h1.434v7.385Zm12.39 9.29H77.43V5.735h1.434v11.911ZM77.218 1.162c.25-.255.563-.381.94-.381.362 0 .671.126.93.38.258.255.388.573.388.954 0 .366-.129.68-.388.941a1.267 1.267 0 0 1-.93.392c-.375 0-.69-.13-.94-.392a1.297 1.297 0 0 1-.377-.94c0-.382.125-.7.377-.954Zm7.218 5.026c.627-.492 1.387-.738 2.281-.738.329 0 .713.04 1.152.12v1.524a4.934 4.934 0 0 0-.61-.095 6.88 6.88 0 0 0-.565-.025c-.69 0-1.267.136-1.729.406-.457.265-.84.641-1.117 1.095-.282.46-.482 1.008-.6 1.644-.12.668-.18 1.346-.176 2.025v5.502h-1.434V5.736h1.386v2.716c.314-1.016.785-1.77 1.412-2.263Zm13.391 3.038a3.813 3.813 0 0 0-.764-1.263 3.522 3.522 0 0 0-1.21-.845c-.478-.207-1.032-.31-1.657-.31-1.271 0-2.269.37-3 1.109-.728.738-1.163 1.703-1.304 2.894h8.253a5.367 5.367 0 0 0-.318-1.585Zm-9.029.048a6.015 6.015 0 0 1 1.163-2.001 5.423 5.423 0 0 1 1.823-1.335c.714-.326 1.51-.488 2.386-.488.925 0 1.737.163 2.434.488a4.953 4.953 0 0 1 1.74 1.322A5.536 5.536 0 0 1 99.377 9.2a7.92 7.92 0 0 1 .341 2.346v.429h-9.876l-.023.166c.015.714.144 1.345.389 1.894.242.549.563 1.008.963 1.381.406.377.881.669 1.4.858a4.872 4.872 0 0 0 1.715.298c.894 0 1.661-.178 2.304-.535a6.32 6.32 0 0 0 1.647-1.299l.752 1.144c-.501.524-1.129.997-1.881 1.418-.752.42-1.67.631-2.751.631-.895 0-1.705-.146-2.434-.44a5.48 5.48 0 0 1-1.88-1.24 5.512 5.512 0 0 1-1.224-1.94c-.29-.763-.435-1.612-.435-2.548 0-.891.138-1.72.413-2.49Zm-79.689 3.87c-.897 0-1.265-.28-1.596-.705-.214-.279-.323-.688-.323-1.22V8.736h3.01V4.283H7.192V0H3.343v1.602c0 1.775-1.334 3.212-2.98 3.212-.124 0-.245-.008-.363-.024v3.947h2.02v3.965c0 1.562.278 2.764.833 3.583.858 1.253 1.81 2.073 4.133 2.073 1.346 0 2.475-.314 3.214-.731v-4.668c-.279.11-.655.184-1.091.184h-.001Z"/></g><defs><clipPath id="a"><path fill="#fff" d="M0 0h100v22.755H0z"/></clipPath></defs></svg>
